icons/folder_type_cubit_opened.svg

<svg xmlns="http://www.w3.org/2000/svg" viewBox="0 0 32 32"><path d="M27.4 5.5h-9.2l-2.1 4.2H4.3v4H.5l3.8 12.8h25.2v-21Zm-7.2 2.1h7.1v2.1h-8.1Zm5.5 6.1H6.6v-1.9h20.8v7.626Z" style="fill:#7bc0db"/><path d="m22.429 11.161 8.217 4.92v9.838l-8.217 4.92-8.217-4.92v-9.838Z"/><path d="M14.879 16.451 22.429 21v9.1l-7.55-4.549Z" style="fill:#82eddf"/><path d="M29.978 16.451 22.428 21v9.1l7.55-4.549Z" style="fill:#00d3b9"/><path d="m14.879 16.451 7.55-4.55 7.55 4.55L22.429 21Z" style="fill:#0084c1"/><path d="m22.429 15.076 4.948 2.962v5.925l-4.948 2.962-4.948-2.962v-5.925Z"/><path d="M19.98 19.519 22.43 21v2.963l-2.45-1.48Z" style="fill:#82eddf"/><path d="M24.877 19.519 22.429 21v2.963l2.448-1.48Z" style="fill:#00d3b9"/><path d="m19.98 19.519 2.45-1.48 2.447 1.48L22.429 21Z" style="fill:#0084c1"/></svg>

<svg xmlns="http://www.w3.org/2000/svg" viewBox="0 0 32 32"><title>folder_type_cubit_opened</title><path d="M27.4,5.5H18.2L16.1,9.7H4.3v4H.5L4.3,26.5H29.5V5.5ZM20.2,7.6h7.1V9.7H19.2Zm5.5,6.1H6.6V11.8H27.4v7.626Z" style="fill:#7bc0db"/><path d="M22.429,11.161l8.217,4.92v9.838l-8.217,4.92-8.217-4.92V16.081Z"/><path d="M14.879,16.451,22.429,21v9.1l-7.55-4.549Z" style="fill:#82eddf"/><path d="M29.978,16.451,22.428,21v9.1l7.55-4.549Z" style="fill:#00d3b9"/><path d="M14.879,16.451l7.55-4.55,7.55,4.55L22.429,21Z" style="fill:#0084c1"/><path d="M22.429,15.076l4.948,2.962v5.925l-4.948,2.962-4.948-2.962V18.038Z"/><path d="M19.98,19.519,22.43,21v2.963l-2.45-1.48Z" style="fill:#82eddf"/><path d="M24.877,19.519,22.429,21v2.963l2.448-1.48Z" style="fill:#00d3b9"/><path d="M19.98,19.519l2.45-1.48,2.447,1.48L22.429,21Z" style="fill:#0084c1"/></svg>
